assets/Burrito/Flat/burrito_flat.svg

<svg width="32" height="32" viewBox="0 0 32 32" fill="none" xmlns="http://www.w3.org/2000/svg">
<path d="M21.0712 9.48132L14.6398 3.04999L3.08984 14.61L9.52118 21.0413C12.7112 24.2313 17.8912 24.2313 21.0812 21.0413C24.2612 17.8513 24.2612 12.6713 21.0712 9.48132Z" fill="#F3AD61"/>
<path d="M27.57 27.54C30.76 24.35 30.76 19.17 27.57 15.98L24.98 13.39C24.1469 18.7481 23.9523 24.3295 23.54 29.74C25.02 29.42 26.43 28.69 27.57 27.54Z" fill="#9B9B9B"/>
<path d="M24.9799 13.39L19.2499 7.66003C22.4399 10.85 22.4399 16.03 19.2499 19.22C16.0599 22.41 10.8799 22.41 7.68994 19.22L16.0099 27.54C18.0499 29.58 20.9099 30.32 23.5399 29.74C27.3899 25.06 27.8699 18.53 24.9799 13.39Z" fill="#D3D3D3"/>
<path d="M15.6379 5.7858C15.5479 5.0258 15.208 4.2858 14.618 3.6958C12.2817 6.08601 6.44476 11.9992 3.6709 14.6298C4.2609 15.2198 5.00089 15.5498 5.76089 15.6498L15.6379 5.7858Z" fill="#F9C23C"/>
<path d="M15.1213 4.22383C14.9913 4.03383 14.8513 3.86383 14.6813 3.69383C14.4158 3.42835 14.119 3.21357 13.8026 3.0495C10.5493 5.76176 6.65556 9.87371 2.8479 13.5043C3.02164 13.9307 3.28117 14.331 3.62648 14.6788C3.78648 14.8388 3.96648 14.9888 4.15648 15.1188L15.1213 4.22383Z" fill="#F8312F"/>
<path d="M15.7057 7.64048C16.1057 6.92048 16.0034 5.89001 15.3501 5.89001C14.9601 5.93001 14.5901 6.10001 14.2901 6.40001C13.9901 6.70001 13.8201 7.09001 13.7801 7.48001C13.7601 7.69001 13.6001 7.85001 13.3901 7.87001C12.9901 7.91001 12.6101 8.08001 12.3101 8.38001C12.0101 8.68001 11.8401 9.07001 11.8001 9.46001C11.7801 9.67001 11.6201 9.83002 11.4101 9.85002C11.0101 9.89002 10.6301 10.06 10.3301 10.36C10.0301 10.66 9.86013 11.05 9.82013 11.44C9.80013 11.65 9.64013 11.81 9.43013 11.83C9.03013 11.87 8.65013 12.04 8.35013 12.34C8.05013 12.64 7.88012 13.03 7.84012 13.42C7.82012 13.62 7.67012 13.79 7.47012 13.81C7.04012 13.85 6.63012 14.04 6.31012 14.38C6.05012 14.66 5.91012 15.01 5.87012 15.37C6.4756 16.0369 7.51229 15.77 8.23229 15.37C8.51229 15.21 9.42146 14.62 9.66146 14.38L14.9501 9.03987C15.1901 8.79987 15.5457 7.92048 15.7057 7.64048Z" fill="#6D4534"/>
<path d="M11.81 2.95C12.72 2.95 13.63 3.3 14.33 3.99C15.72 5.38 15.72 7.64 14.33 9.03L9.03 14.33C8.33 15.03 7.42001 15.37 6.51001 15.37C5.60001 15.37 4.69001 15.02 3.99001 14.33C2.60001 12.94 2.60001 10.68 3.99001 9.29L9.29001 3.99C9.98001 3.29 10.9 2.95 11.81 2.95ZM11.81 2C10.61 2 9.47 2.47 8.62 3.32L3.32001 8.62C2.47001 9.47 2 10.6 2 11.81C2 13.01 2.47001 14.15 3.32001 15C4.17001 15.85 5.30001 16.32 6.51001 16.32C7.71001 16.32 8.85 15.85 9.7 15L15 9.7C15.85 8.85 16.32 7.72 16.32 6.51C16.32 5.31 15.85 4.17 15 3.32C14.15 2.47 13.01 2 11.81 2Z" fill="#FFDEA7"/>
<path d="M13.2499 3.17996C12.1999 2.55996 10.8399 2.65996 9.89994 3.47996C9.88994 3.48996 9.86993 3.49996 9.85993 3.51996C9.19993 4.10996 8.31994 4.36996 7.42994 4.26996C6.58994 4.16996 5.70994 4.44996 5.06994 5.08996C4.42994 5.72996 4.14993 6.60996 4.24993 7.44996C4.34993 8.32996 4.08993 9.21996 3.49993 9.87996C3.48993 9.88996 3.47994 9.90996 3.45994 9.91996C2.63994 10.86 2.53994 12.22 3.15994 13.27L13.2499 3.17996Z" fill="#44911B"/>
<path d="M14.0301 3.64C13.3401 2.95 12.2302 2.95 11.5402 3.64C11.2402 3.94 11.0701 4.33 11.0301 4.72C11.0101 4.93 10.8501 5.09 10.6401 5.11C10.2401 5.15 9.86014 5.32 9.56014 5.62C9.26014 5.92 9.09015 6.31 9.05015 6.7C9.03015 6.91 8.87015 7.07 8.66015 7.09C8.26015 7.13 7.88015 7.3 7.58015 7.6C7.28015 7.9 7.11015 8.29 7.07015 8.68C7.05015 8.89 6.89016 9.05 6.68016 9.07C6.28015 9.11 5.90015 9.28 5.60015 9.58C5.30015 9.88 5.13014 10.27 5.09014 10.66C5.07014 10.86 4.92015 11.03 4.72015 11.05C4.29015 11.09 3.88014 11.28 3.56014 11.62C2.97014 12.28 2.96016 13.3 3.54016 13.96C3.57016 13.99 3.59014 14.02 3.62014 14.04L14.0301 3.64Z" fill="#FFF478"/>
</svg>

<svg xmlns="http://www.w3.org/2000/svg" width="32" height="32" fill="none"><path fill="#F3AD61" d="M21.071 9.481 14.64 3.05 3.09 14.61l6.431 6.431a8.178 8.178 0 0 0 11.56 0c3.18-3.19 3.18-8.37-.01-11.56Z"/><path fill="#9B9B9B" d="M27.57 27.54a8.178 8.178 0 0 0 0-11.56l-2.59-2.59c-.833 5.358-1.028 10.94-1.44 16.35a8.048 8.048 0 0 0 4.03-2.2Z"/><path fill="#D3D3D3" d="m24.98 13.39-5.73-5.73a8.178 8.178 0 0 1 0 11.56 8.178 8.178 0 0 1-11.56 0l8.32 8.32a8.154 8.154 0 0 0 7.53 2.2c3.85-4.68 4.33-11.21 1.44-16.35Z"/><path fill="#F9C23C" d="M15.638 5.786c-.09-.76-.43-1.5-1.02-2.09-2.336 2.39-8.173 8.303-10.947 10.934.59.59 1.33.92 2.09 1.02l9.877-9.864Z"/><path fill="#F8312F" d="M15.121 4.224a3.64 3.64 0 0 0-1.318-1.175C10.549 5.763 6.656 9.875 2.848 13.505a3.584 3.584 0 0 0 1.308 1.615L15.121 4.224Z"/><path fill="#6D4534" d="M15.706 7.64c.4-.72.297-1.75-.356-1.75-.39.04-.76.21-1.06.51-.3.3-.47.69-.51 1.08-.02.21-.18.37-.39.39-.4.04-.78.21-1.08.51-.3.3-.47.69-.51 1.08-.02.21-.18.37-.39.39-.4.04-.78.21-1.08.51-.3.3-.47.69-.51 1.08-.02.21-.18.37-.39.39-.4.04-.78.21-1.08.51-.3.3-.47.69-.51 1.08-.02.2-.17.37-.37.39-.43.04-.84.23-1.16.57-.26.28-.4.63-.44.99.606.667 1.642.4 2.362 0 .28-.16 1.19-.75 1.43-.99l5.288-5.34c.24-.24.596-1.12.756-1.4Z"/><path fill="#FFDEA7" d="M11.81 2.95c.91 0 1.82.35 2.52 1.04a3.567 3.567 0 0 1 0 5.04l-5.3 5.3c-.7.7-1.61 1.04-2.52 1.04-.91 0-1.82-.35-2.52-1.04a3.567 3.567 0 0 1 0-5.04l5.3-5.3c.69-.7 1.61-1.04 2.52-1.04Zm0-.95c-1.2 0-2.34.47-3.19 1.32l-5.3 5.3C2.47 9.47 2 10.6 2 11.81c0 1.2.47 2.34 1.32 3.19.85.85 1.98 1.32 3.19 1.32 1.2 0 2.34-.47 3.19-1.32L15 9.7c.85-.85 1.32-1.98 1.32-3.19 0-1.2-.47-2.34-1.32-3.19A4.494 4.494 0 0 0 11.81 2Z"/><path fill="#44911B" d="M13.25 3.18a2.882 2.882 0 0 0-3.35.3c-.01.01-.03.02-.04.04-.66.59-1.54.85-2.43.75a2.864 2.864 0 0 0-3.18 3.18c.1.88-.16 1.77-.75 2.43-.01.01-.02.03-.04.04-.82.94-.92 2.3-.3 3.35L13.25 3.18Z"/><path fill="#FFF478" d="M14.03 3.64c-.69-.69-1.8-.69-2.49 0-.3.3-.47.69-.51 1.08-.02.21-.18.37-.39.39-.4.04-.78.21-1.08.51-.3.3-.47.69-.51 1.08-.02.21-.18.37-.39.39-.4.04-.78.21-1.08.51-.3.3-.47.69-.51 1.08-.02.21-.18.37-.39.39-.4.04-.78.21-1.08.51-.3.3-.47.69-.51 1.08-.02.2-.17.37-.37.39-.43.04-.84.23-1.16.57-.59.66-.6 1.68-.02 2.34.03.03.05.06.08.08l10.41-10.4Z"/></svg>
